X: 81
T:Kavana's Craic
M:4/4
C:Chris Corrigan
R:Reel
Z:Chris Corrigan
K:Ador
EAAG ABcA|B2 dB eBdB|EAAG ABcA|BAGB A2 AG|
EAAG ABcA|B2 dB eBdB|EAAG ABcd|1 edBc A2 AG:|2 edBc A2 (3ABc|
||:K:D
d2 dc dAFD|G2 BG FGAF|d2 dc dAFD|GBAG FG E2|
d2 dc dAFf|gfeg fedB|ABde fedf|afdf edBA:||
W: For Ron Kavana, after an appearance he put in at a party at
W: John Gothard's, in Vancouver B.C. Crawling on the floor,
W: reaching for a telephone, and this reel just popped right out!

